packages/gestalt-icons-android/vr-theme/ic_vr_orientation-landscape_gestalt.svg

<svg width="24" height="24" viewBox="0 0 24 24" fill="none" xmlns="http://www.w3.org/2000/svg">
<path fill-rule="evenodd" clip-rule="evenodd" d="M23 21C23 22.1046 22.1046 23 21 23H3C1.89543 23 1 22.1046 1 21L1 3C1 1.89543 1.89543 1 3 1L9 1C10.1046 1 11 1.89543 11 3L11 13H21C22.1046 13 23 13.8954 23 15V21ZM3 13H9L9 3H3L3 13Z" fill="black"/>
<path d="M16.2929 8.70711L17.7071 7.29289L16.4142 6H18C19.1046 6 20 6.89543 20 8V11H22V8C22 5.79086 20.2091 4 18 4H16.4142L17.7071 2.70711L16.2929 1.29289L12.5858 5L16.2929 8.70711Z" fill="black"/>
</svg>

<svg xmlns="http://www.w3.org/2000/svg" width="24" height="24"><path d="M23 21a2 2 0 0 1-2 2H3a2 2 0 0 1-2-2V3c0-1.1.9-2 2-2h6a2 2 0 0 1 2 2v10h10a2 2 0 0 1 2 2zM3 13h6V3H3zm9.59-8 3.7-3.7 1.42 1.4L16.4 4H18a4 4 0 0 1 4 4v3h-2V8a2 2 0 0 0-2-2h-1.59l1.3 1.3-1.42 1.4z"/></svg>
